X:1
T:THE UNION POLKA
T:THE UNION POLKA
T:To Young Pupils by an Amateur
T:anonymous
T:by IMSLP315261-PMLP509257
T:by IMSLP315261-PMLP509257
T:by IMSLP315261-PMLP509257
C:anonymous
Z:by IMSLP315261-PMLP509257
%%score { 1 | 2 }
L:1/8
M:2/4
K:F
V:1 treble nm="Piano" snm="Pno."
V:2 bass 
V:1
!p! c | cA a>g | fd d2 | ge d'>b | af f2 |{c} cA a>g | fd d2 |!f! ge/g/ c/d/e/f/ | af f!8va(!c' | %9
!mf! c'a a'>g' | f'd' d'2 | g'e' d''>b' | a'f' f'2 | c'a a'>g' | f'd' d'2 | %15
!f!!<(! g'e'/g'/ c'/d'/e'/f'/ | a'f'f'!<)! z |:[K:Bb]!pp! [fb] (3([fb]/c'/d'/) [fd'][fb] | %18
 g' (3(f'/g'/f'/) e'c' | [ac'] (3(c'/d'/e'/) [ae'][ac'] | a' (3(g'/a'/g'/) f'd' | %21
!<(! [fb] (3([fb]/c'/d'/) [fd'][fb] | g' (3(f'/g'/f'/) e'c'!<)! | [cc'][ee'][gg']>[ff'] | %24
 d'bb z!8va)! :|[K:F] F/^F/G/^G/ A/B/A/B/ | dc (d/c/=B/c/) | ag (a/g/f/g/) | gf (g/f/e/f/) | %29
 F/^F/G/^G/ A/B/A/B/ | dc (d/c/=B/c/) | ag (a/g/f/g/) |{a} fff || c | cA a>g | fd d2 | ge d'>b | %37
 af f2 |{c} cA a>g | fd d2 |!<(! ge/g/ c/d/e/f/ | aff z!<)! |!f!!8va(! c'a a'>g' | f'd' d'2 | %44
 g'e' d''>b' | a'f' f'2 | c'a a'>g' | f'd' d'2 | g'e'/g'/ c'/d'/e'/f'/ | a'f'f' z || %50
 f/^f/g/^g/ a/b/a/b/ | d'c' (d'/c'/=b/c'/) | a'g' (a'/g'/f'/g'/) | a'g' (a'/g'/f'/g'/) | %54
 f/^f/g/^g/ a/b/a/b/ | d'c' (d'/c'/=b/c'/) | a'g' (a'/g'/f'/g'/) |{a'} f'f'f'!8va)! |: %58
[K:Bb] [ee'] |!f! [dd'][Bb][Bb] z |!p!{[ee']} [dd'][Bb][Bb] z | [cc'][ee'] [gg']>[aa'] | %62
!8va(! [bb']/>[aa']/[gg']/>[ff']/ [ee']/>[dd']/[ee']/>[ff']/!8va)! | [dd'][Bb] [Bb]2 | %64
{[ee']} [dd'][Bb][Bb] z |!p! b/!>(!a/g/f/ =e/f/g/a/ | bb/b/ bb!>)! | %67
!f!!8va(! [fb] (3([fb]/c'/d'/) [fd'][fb] | g' (3(f'/g'/f'/) e'c' | [ac'] (3(c'/d'/e'/) [ae'][ac'] | %70
 a' (3(g'/a'/g'/) f'd' | [fb] (3([fb]/c'/d'/) [fd'][fb] | g' (3(f'/g'/f'/) e'c' | %73
 [cc'][ee'][gg']>[ff'] |{e'} d'bb!8va)! :|[K:F]!mf! c | cA a>g | fd d2 | ge d'3/2{c'}b/ | af f2 | %80
{c} cA a>g | fd d2 | ge/g/ c/d/e/f/ | aff z |!f!!8va(! c'a a'>g' | f'd' d'2 | %86
{c'} g'e' d''3/2{c''}b'/ | a'f' f'2 |{c'} c'a a'>g' | f'd'd' z | %90
!ff! [c'e'g'][c'e'g']/[c'e'g']/ [c'e'g'][c'e'g'] | [c'e'g'][ac'g'][ac'g']!8va)! |] %92
V:2
 z | F,[A,C][A,C][A,C] | F,[B,D][B,D][B,D] | C,[E,G,B,][E,G,B,][E,G,B,] | F,[A,C][A,C][A,C] | %5
 F,[A,C][A,C][A,C] | F,[B,D][B,D][B,D] | [C,C][G,B,CE][G,B,CE][G,B,CE] | [F,A,C][F,A,C][F,A,C] z | %9
 [F,,F,][F,A,C][F,A,C][F,A,C] | [B,,B,][F,B,D][F,B,D][F,B,D] | [C,C][G,B,CE][G,B,CE][G,B,CE] | %12
 [F,,F,][F,A,C] [F,A,C]2 | [F,,F,][F,A,C][F,A,C][F,A,C] | [B,,B,][F,B,D][F,B,D][F,B,D] | %15
 [C,C][G,B,CE][G,B,CE][G,B,CE] | [F,,F,][F,A,C][F,A,C][F,A,C] |: %17
[K:Bb] [B,,B,][F,B,D]/[F,B,D]/[F,B,D][F,B,D] | [F,,F,][F,A,CE]/[F,A,CE]/[F,A,CE][F,A,CE] | %19
 [F,,F,][F,CE]/[F,CE]/[F,CE][F,CE] | [F,,F,][F,CE]/[F,CE]/[F,B,D][F,B,D] | %21
 [B,,B,][F,B,D]/[F,B,D]/[F,B,D][F,B,D] | [F,,F,][F,CE]/[F,CE]/[F,CE][F,CE] | %23
 [F,,F,][F,CE] [F,CE]2 | [B,,B,][B,D][B,D] z :|[K:F] F,/^F,/G,/^G,/ A,/B,/A,/B,/ | %26
 [F,A,C][F,A,C][F,A,C] z | [C,E,G,C][C,E,G,C][C,E,G,C] z | [F,A,C][F,A,C][F,A,C] z | %29
 F,/^F,/G,/^G,/ A,/B,/A,/B,/ | [F,A,C][F,A,C][F,A,C] z | [C,E,G,C][C,E,G,C][C,E,G,C] z | %32
 [F,A,C][F,A,C][F,A,C] || z | F,[A,C][A,C][A,C] | F,[B,D][B,D][B,D] | C,[E,G,B,][E,G,B,][E,G,B,] | %37
 F,[A,C][A,C][A,C] | F,[A,C][A,C][A,C] | F,[B,D][B,D][B,D] | [C,C][G,B,CE][G,B,CE][G,B,CE] | %41
 [F,A,C][F,A,C][F,A,C] z | [F,,F,][F,A,C][F,A,C][F,A,C] | [B,,B,][F,B,D][F,B,D][F,B,D] | %44
 [C,C][G,B,CE][G,B,CE][G,B,CE] | [F,,F,][F,A,C][F,A,C] z | [F,,F,][F,A,C][F,A,C][F,A,C] | %47
 [B,,B,][F,B,D][F,B,D][F,B,D] | [C,C][G,B,CE][G,B,CE][G,B,CE] | [F,,F,][F,A,C][F,A,C][F,A,C] || %50
 F,/^F,/G,/^G,/ A,/B,/A,/B,/ | [F,A,C][F,A,C][F,A,C] z | [C,E,G,C][C,E,G,C][C,E,G,C] z | %53
 [C,E,G,C][C,E,G,C][C,E,G,C] z | F,/^F,/G,/^G,/ A,/B,/A,/B,/ | [F,A,C][F,A,C][F,A,C] z | %56
 [C,E,G,C][C,E,G,C][C,E,G,C] z | [F,A,C][F,A,C][F,A,C] |:[K:Bb] z | [B,,B,][B,D][B,D] z | %60
 [B,,B,][B,D][B,D] z | [F,,F,][F,CE][F,CE] z | [F,,F,][F,CE][F,CE][F,CE] | %63
 [B,,B,][F,B,D] [F,B,D]2 | [B,,B,][F,B,D][F,B,D] z | [F,,F,][F,A,CE][F,A,CE][F,A,CE] | [B,D]2 z2 | %67
 [B,,B,][F,B,D]/[F,B,D]/[F,B,D][F,B,D] | [F,,F,][F,A,CE]/[F,A,CE]/[F,A,CE][F,A,CE] | %69
 [F,,F,][F,CE]/[F,CE]/[F,CE][F,CE] | [B,,B,][B,D]/[B,D]/[B,D][B,D] | %71
 [B,,B,][B,D]/[B,D]/[B,D][B,D] | [F,,F,][F,CE]/[F,CE]/[F,CE][F,CE] | [F,,F,][F,CE][F,CE][F,CE] | %74
 [B,,B,][B,D][B,D] :|[K:F] z | F,[A,C][A,C][A,C] | F,[B,D][B,D][B,D] | C,[E,G,B,][E,G,B,][E,G,B,] | %79
 F,[A,C][A,C][A,C] | F,[A,C][A,C][A,C] | F,[B,D][B,D][B,D] | [C,C][G,B,CE][G,B,CE][G,B,CE] | %83
 [F,A,C][F,A,C][F,A,C] z | [F,,F,][F,A,C][F,A,C][F,A,C] | [B,,B,][F,B,D][F,B,D][F,B,D] | %86
 [C,C][G,B,CE][G,B,CE][G,B,CE] | [F,,F,][F,A,C][F,A,C] z | [F,,F,][F,A,C][F,A,C][F,A,C] | %89
 [B,,B,][F,B,D][F,B,D] z |!ped! [C,C][C,C] [C,C]2 | [C,C][F,,F,][F,,F,]!ped-up! |] %92

